X:1
M:3/4
K:G
BD/2E/2G/2B/2|_B3|BD/2E/2G/2B/2|_B3|Bed|B2G|E2^E|FED|
BD/2E/2G/2B/2|_B3|BD/2E/2G/2B/2|_B3|Bed|BG/2F/2=F|EFD|G3||
FA c/2B/2G/2A/2|Bc/2c/2 BB/2c/2|dd AB/2c/2|\
cd B/2G/2G/2A/2|BG G:|